X: 1
T:John McGinley's
R:reel
D:Paddy Glackin: In Full Spate.
Z:id:hn-reel-88
M:C|
K:Ador
EAAB cABG|EAAG EGDG|EAAB cA (3Bcd|1 e2ge dBAG:|2 e2ge dBAa||
gcec Gcea|gceg agea|gcec AcGE|GAcd edda|
gcec Gcea|gceg aged|c2gc acgc|edce dBAG||
